X:1
T:An Evening Prayer
T:An Evening Prayer
T:Charles Hutchinson Gabriel
T:Charles Hutchinson Gabriel, 1911
T:Public Domain Courtesy of the Cyber Hymnal™
C:Charles Hutchinson Gabriel
Z:Public Domain
Z:Courtesy of the Cyber Hymnal™
%%score 1 ( 2 3 ) ( 4 5 )
L:1/8
Q:1/4=90
M:4/4
K:F
V:1 treble 
V:2 treble 
V:3 treble 
V:4 bass 
V:5 bass 
V:1
 C2 | A3 E GFA,C | E3 D D2 F2 | E3 G B,CEC | C3 B, A,2 C2 | A3 B cFGA x2 | B3 D F2 (ED) | %7
w: 1.~If|I have wound- ed a- ny|soul to- day, If|I have caused one foot to|go a- stray, If|I have walked in my own|will- ful way, Dear *|
w: 2.~If|I have ut- tered i- dle|words or vain, If|I have turned a- side from|want or pain, Lest|I my- self shall suf- fer|through the strain, Dear *|
w: 3.~If|I have been per- verse or|hard, or cold, If|I have longed for shel- ter|in Thy fold, When|Thou hast giv- en me some|fort to hold, Dear *|
w: 4.~For-|give the sins I have con-|fessed to Thee; For-|give the sec- ret sins I|do not see; O|guide me, love me and my|keep- er be, A- *|
 (C2 A4) G2 | F8- F/ |] %9
w: Lord, * for-|give! *|
w: Lord, * for-|give! *|
w: Lord, * for-|give! *|
w: ~ * ~|~men. *|
V:2
 C2 | ([A,CF][A,CF][A,CF])[B,E] [A,G]FA,C | [CE]3 [B,D] [B,D]2 [=B,F]2 | %3
 ([B,E][B,E][B,E])G B,C[CE][B,D] | ([A,C][A,C][A,C])[F,B,] [F,A,]2 C2 | %5
 ([CFA][CFA][CFA])B [Cc]A[EG][_EA] x2 | z ([B,DF][B,DF])[B,DF] [DF]4 | (C2 [CA]4) [B,G]2 | F8 x/ |] %9
V:3
 x2 | x8 | x8 | x8 | x8 | x10 | x8 | x8 | (A,2 B,2 A,4- A,/) |] %9
V:4
 [F,,F,]2 | [F,,F,]4 C,2 F,-F, | [B,,F,]6 [G,,G,]2 | G,3 E, E,2 G,E, | F,3 _D, C,2 z2 | %5
 F,3- G, A,2 B,C x2 | B,,4 [^B,,^G,]4 | (A,2 [C,,C,]2) x4 | (C,2 _D,2 C,4- C,/) |] %9
V:5
 x2 | x4 F,,2- F,,A,, | x8 | C,8 | F,,6 x2 | x3 F, F,4- F,2 | x8 | C,2- C,4- x2 | F,,8 x/ |] %9

